X: 922
T: Gül Bî-rûh-ı Yâr
C: Abdülkadir Meragî
O: Turkey
F: http://compmusic.upf.edu/node/140
N: mahur--kar--hafif--gul_bi-ruh-i--abdulkadir_meragi
N: makam= mahur
N: form= kar
N: usul= hafif = 32/4
M: 32/4
L: 1/16
K: C ^9/8f   
Q: 1/4=108
%%MIDI tuningsystem comma53
e4 f4 g8  | g8 g4 g4  | g4 g4 g4 g4  | a2 c'2 b2 c'2 a6 z2  | \
w:   |   |   |   | 
b2 a2 g2 f2 e6 z2  | 
w:   | 
f2 g2 f2 g2 f2 g2 f2 e2  | e4 f2 g2 f2 g2 e2 f2  | \
w:   |   | 
z2 d4 g2 g f e f g4  | 
w:   | 
z2 g2 g4 a4 b4  | z2 g2 g4 a4 b4  | z2 g2 g4 a4 c'4  | \
w:   |   |   | 
b4 a4 g3 f e2 f2  | 
w:   | 
g8 z4 g2 f2  | g4 g2 f2 a3 g g3 f  | \
w:   |   | 
f3 e f2 g2 f2 g2 e2 f2  | z2 d4 g2 g f e f g4  | 
w:   |   | 
g8 a2 g2 g2 f2  | e f e2 f g f2 g6 z2  | \
w:   |   | 
d4 e8 f4  | g8 f2 g2 a2 g2  | 
w:   |   | 
g6 z2 g4 a2 b2  | g6 z2 a2 g2 g2 f2  | \
w:   |   | 
f2 e2 e2 e2 e4 a4  | g4 =f4 e4 d4  | 
w:   |   | 
e2 d =f e2 d2 c6 z2  | g3 =f e2 d2 e3 d c2 B2  | \
w:   |   | 
c4 c2 c2 c4 g2 =f2  | 
w:   | 
=f2 e2 e2 d2 d2 c2 c2 B2  | B4 A2 G2 G4 A2 c2  | \
w:   |   | 
B2 A2 G4 A2 B A G2 F2  | 
w:   | 
G8 G2 A2 B2 c2  | d4 e3 d d6 z2  | d8 d8  | \
w:   |   |   | 
e4 f2 e2 d8  | e2 g2 f2 e2 d6 z2  | 
w:   |   | 
e2 g2 f2 e2 d2 ^c2 d4  | d2 z2 e2 f2 g4 g4  | \
w:   |   | 
g4 g4 a4 b4  | g4 c'2 b2 a4 g4  | 
w:   |   | 
a2 g2 f2 g2 g6 z2  | g4 g2 g2 g4 g2 f2  | \
w:   |   | 
g2 f2 g2 f2 g2 f2 a2 e2  | e4 e2 e2 e4 e4  | 
w:   |   | 
e4 e2 c2 d2 e2 d2 e2  | e8 z4 d2 e2  | \
w:   |   | 
e8 e2 d2 d2 c2  | e4 e2 d2 c4 g2 =f2  | 
w:   |   | 
=f2 e2 e2 d2 e2 d2 d2 c2  | d2 c2 B2 c2 d4 e3 d  | \
w:   |   | 
c4 e3 d c8  | c4 c2 c2 c4 g2 =f2  | 
w:   |   | 
=f2 e2 e2 d2 d2 c2 c2 _1/4B2  | _1/4B4 A2 G2 A4 z2 c2  | \
w:   |   | 
_1/4B4 A2 G2 A2 B A G2 F2  | 
w:   | 
G8 G2 A2 B2 c2  | d4 e3 d d6 z2  | z4 ^c2 d2 c4 d4  | \
w:   |   |   | 
e4 =f2 e2 d2 ^c2 d4  | 
w:   | 
e4 =f2 e2 d2 ^c2 d4  | z4 ^c2 d2 c4 d4  | \
w:   |   | 
e4 =f2 e2 d2 ^c2 d4  | z4 e2 f2 g4 g4  | 
w:   |   | 
g8 a2 g2 g2 f2  | f2 e2 e6 z2 a4  | g4 =f4 e4 d4  | \
w:   |   |   | 
e2 d =f e2 d2 c6 z2  | 
w:   | 
g3 =f e2 d2 e3 d c2 B2  | c4 c2 c2 c4 g2 =f2  | \
w:   |   | 
=f2 e2 e2 d2 d2 c2 c2 B2  | 
w:   | 
B4 A2 G2 G4 A2 c2  | B2 A2 G4 A2 B A G2 F2  | \
w:   |   | 
G8 z4 z4  | b8 b6 z2  | b8 b8  | 
w:   |   |   | 
d'2 c'2 c'2 b2 b8  | z4 g4 b4 b4  | c'2 b2 c'2 b2 ^a2 b2 c'2 c' b  | \
w:   |   |   | 
b8 z4 z4  | 
w:   | 
z4 z4 z4 z4  | z4 g8 d'4  | d'2 c'2 d'2 c'2 c'2 b2 c'2 b2  | \
w:  |   |   | 
b2 a2 b2 a2 a8  | a2 c'2 b2 a2 a6 z2  | 
w:   |   | 
g4 a8 d'2 c'2  | c'2 b2 b2 a2 a2 g2 g2 f2  | \
w:   |   | 
g6 z2 g4 d'4  | d'4 b4 c'4 b2 a2  | 
w:   |   | 
a2 b2 b2 a2 g6 z2  | d'2 =f'2 e'2 d'2 d'8  | \
w:   |   | 
d'4 d'2 c'2 e'4 d'2 c'2  | c'4 c'2 b2 d'4 c'2 _1/4b2  | 
w:   |   | 
_1/4b4 a4 a2 c'2 b2 a2  | g2 c'2 _1/4b2 a2 a8  | \
w:   |   | 
z4 e2 f2 g4 g4  | g4 g4 a4 b4  | g4 c'2 b2 a4 g4  | 
w:   |   |   | 
a2 g2 f2 g2 g6 z2  | g8 a2 g2 g2 f2  | \
w:   |   | 
e f e2 f g f2 g6 z2  | d4 e4 e4 f4  | 
w:   |   | 
g8 f2 g2 a2 g2  | g6 z2 g4 a2 b2  | g6 z2 a2 g2 g2 f2  | \
w:   |   |   | 
f2 e2 e2 e2 e4 a4  | 
w:   | 
g4 =f4 e4 d4  | e2 d =f e2 d2 c6 z2  | \
w:   |   | 
g3 =f e2 d2 e3 d c2 B2  | c4 c2 c2 c4 g2 =f2  | 
w:   |   | 
=f2 e2 e2 d2 d2 c2 c2 B2  | B4 A2 G2 G4 A2 c2  | \
w:   |   | 
B2 A2 G4 A2 B A G2 F2  | 
w:   | 
G8 G2 A2 B2 c2  | d4 e3 d d4 z4  | d8 d8  | \
w:   |   |   | 
e4 f2 e2 d8  | e2 g2 f2 e2 d6 z2  | 
w:   |   | 
e2 g2 f2 e2 d2 ^c2 d4  | d2 z2 e2 f2 g4 g4  | \
w:   |   | 
g4 g4 a4 b4  | g4 c'2 b2 a4 g4  | 
w:   |   | 
a2 g2 f2 g2 g6 z2  | g4 g2 g2 g4 g2 f2  | \
w:   |   | 
g2 f2 g2 f2 g2 f2 a2 e2  | e4 e2 e2 e4 e4  | 
w:   |   | 
e4 e2 c2 d2 e2 d2 e2  | e8 z4 d2 e2  | \
w:   |   | 
e8 e2 d2 d2 c2  | e4 e2 d2 c4 g2 =f2  | 
w:   |   | 
=f2 e2 e2 d2 e2 d2 d2 c2  | d2 c2 B2 c2 d4 e3 d  | \
w:   |   | 
c4 e3 d c8  | c4 c2 c2 c4 g2 =f2  | 
w:   |   | 
=f2 e2 e2 d2 d2 c2 c2 _1/4B2  | _1/4B4 A2 G2 A4 z2 c2  | \
w:   |   | 
_1/4B4 A2 G2 A2 B A G2 F2  | 
w:   | 
G8 G2 A2 B2 c2  | d4 e3 d d6 z2  | z4 ^c2 d2 c4 d4  | \
w:   |   |   | 
e4 =f2 e2 d2 ^c2 d4  | 
w:   | 
e4 =f2 e2 d2 ^c2 d4  | z4 ^c2 d2 c4 d4  | \
w:   |   | 
e4 =f2 e2 d2 ^c2 d4  | z4 e2 f2 g4 g4  | 
w:   |   | 
g8 a2 g2 g2 f2  | f2 e2 e6 z2 a4  | g4 =f4 e4 d4  | \
w:   |   |   | 
e2 d =f e2 d2 c6 z2  | 
w:   | 
g3 =f e2 d2 e3 d c2 B2  | c4 c2 c2 c4 g2 =f2  | \
w:   |   | 
=f2 e2 e2 d2 d2 c2 c2 B2  | 
w:   | 
B4 A2 G2 G4 A2 c2  | B2 A2 G4 A2 B A G2 F2  | \
w:   |   | 
G8 z4 z4  | G3 F E2 F2 G4 G4  | 
w:   |   | 
|


